X: 0662
M: 2/4
L: 1/8
K: C
c>c c>c | d>c B>A | G>G F>G | E3 D |\
c>c c>c | c>cc A | G>c e>d | c3 G |
c>c c>c | c>c c>c | c>B c>d | e2 e>e |
f>e dd | e>c c>A | G>c e>d | c2 |]

